X:1
T:James Gibb editions
T:Ayez pitié du grand mal - Sermisy
T:#
%%score [ 1 2 ]
L:1/8
Q:1/4=140
M:4/4
K:C
V:1 treble nm="Soprano"
V:2 treble-8 nm="Tenor"
V:1
"^Ayez pitié du grand mal""^Claudin de Sermisy\n(1490-1562)" z8 | A8 | A4 A4 | E8 | z4 A4 | G4 G4 | %6
w: |Ay-|ez pi-|tié|du|grand mal|
 c4 c4 | (B2 A2 G2 F2 | E2 F2 G2 A2 | B4 c4- |[M:4/4] c2 B2 A2 G2 | A4 B4- | B2 A2 A4- | A4 G4) | %14
w: que j'en-|du\- * * *|||||||
 A8- | A8 | z4 A4 | A4 A4 | G4 E4 | G4 A4 | (B6 AG | A2 B2 c2 A2 | B2 A2 B2 c2 | d2 c2 c4- | %24
w: re||Pour|vous ser-|vir, sans|me vou-|loir * *||||
 c4) B4 | c8- | c8 | z4 c4 | c4 c4 | B4 G4 | B4 B4 | (A2 B2 c2 A2 | B2 c2 d4- | d2 c2 B2 A2- | %34
w: * blas-|mer;||A-|mour vous|peult com-|me moy|fai\- * * *|||
 G4 A4 | A2 G2 F2 E2 | D2 E2 F2 G2 | A2 B2 c2 A2 | B4) (A4- | A2 G2 G2 FG) | A8 | z4 A4 | A4 A4 | %43
w: ||||* re~~ay\-||mer,|Et|du pas-|
 E8 | z4 A4 | G4 G4 | c4 c4 | (B2 A2 G2 F2 | E2 F2 G2 A2 | B4 c4- | c2 B2 A2 G2 | A4 B4- | %52
w: sé|fai-|re pay-|er l'u-|su\- * * *|||||
 B2 A2 A4- | A4 G4) | A8 | z4 A4 | A4 A4 | E8 | z4 A4 | G4 G4 | c4 c4 | (B2 A2 G2 F2 | %62
w: ||re,|Et|du pas-|sé|fai-|re pay-|er l'u-|su\- * * *|
 E2 F2 G2 A2 | B4 c4- | c2 B2 A2 G2 | A4 B4- | B2 A2 A4- | A4 G4) | A16 |] %69
w: ||||||re.|
V:2
 d8 | d4 d4 | A4 d4 | c4 c4 | f4 f4 | (e2 d2 c2 B2 | A2 B2 c2 d2 | e6 f2) | g4 c4 | d4 e4 | %10
w: Ay-|ez pi-|tié du|grand mal|que j'en-|du\- * * *|||re, du|grand mal|
[M:4/4][K:treble-8] c4 (f4- | f2 e2 e2 dc | d2 c2 B2 A2) | B8 | A4 d4 | d4 d4 | c4 A4 | c4 d4 | %18
w: que j'en\-|||du-|re Pour|vous ser-|vir, sans|me vou-|
 e8 | z4 c4 | d4 e4 | (f2 d2 e2 f2 | g2 f2 d2 e2 | f2 e2 e2 dc) | d8 | c8 | z4 f4 | f4 f4 | e4 c4 | %29
w: loir,|sans|me vou-|loir * * *|||blas-|mer;|A-|mour vous|peult com-|
 e4 e4 | (d2 c2 d2 e2 | f2 ed e2 f2 | g6 f2 | d4) (e4- | e2 d2 c2 B2 | c4 d4 | B4 A2 B2 | %37
w: me moy|fai\- * * *|||* re~~ay\-||||
 c2 d2 e2 c2 | d2 c2 c2 BA | B8) | A4 d4 | d4 d4 | A4 d4 | c4 c4 | f4 f4 | (e2 d2 c2 B2 | %46
w: |||mer, Et|du pas-|sé fai-|re pay-|er l'u-|su\- * * *|
 A2 B2 c2 d2 | e6 f2) | g4 c4 | d4 e4 | c4 (f4- | f2 e2 e2 dc | d2 c2 B2 A2) | B8 | A4 d4 | d4 d4 | %56
w: ||re, fai-|re pay-|er l'u\-|||su-|re, Et|du pas-|
 A4 d4 | c4 c4 | f4 f4 | (e2 d2 c2 B2 | A2 B2 c2 d2 | e6 f2) | g4 c4 | d4 e4 | c4 (f4- | %65
w: sé fai-|re pay-|er l'u-|su\- * * *|||re, fai-|re pay-|er l'u\-|
 f2 e2 e2 dc | d2 c2 B2 A2) | B8 | A16 |] %69
w: ||su-|re.|

